src/assets/images/prototype/autres-elements/7-tablette-plus.svg

<svg width="119" height="105" viewBox="0 0 119 105" fill="none" xmlns="http://www.w3.org/2000/svg">
<path d="M97.8859 60.8027C100.738 64.2694 101.935 71.6949 102.274 76.0611C102.347 77.0043 102.11 77.9384 101.637 78.7577L95.719 89.0079C92.7338 94.1784 87.0561 95.6331 84.5904 95.7141C76.2112 96.2609 62.9514 89.2632 46.9697 80.5595C32.669 72.7713 11.0958 61.4356 7.55031 54.4685C7.38636 54.1463 7.21556 53.8331 7.05835 53.5076C5.47345 50.2259 7.63663 43.5666 9.54485 38.8585C10.6674 36.0888 13.0286 31.4887 14.4638 28.8674C14.7319 28.3777 15.0295 27.8471 15.3604 27.274C19.1653 20.6836 26.0407 20.8537 32.0614 22.799C38.0821 24.7442 79.4729 47.6207 82.5345 49.3883C85.5961 51.1559 93.888 55.9432 97.8859 60.8027Z" fill="white" stroke="#D9D9D9" stroke-width="5" stroke-linejoin="round"/>
<path d="M106.417 46.0303C109.269 49.4969 110.467 56.9224 110.805 61.2886C110.879 62.2318 110.641 63.1659 110.168 63.9853L104.25 74.2355C101.265 79.4059 95.5873 80.8606 93.1216 80.9417C84.7425 81.4885 71.4826 74.4908 55.501 65.787C41.2003 57.9988 19.6271 46.6631 16.0816 39.696C15.9176 39.3739 15.7468 39.0606 15.5896 38.7351C14.0047 35.4534 16.1679 28.7941 18.0761 24.086C19.1987 21.3164 21.5599 16.7163 22.995 14.0949C23.2631 13.6052 23.5607 13.0747 23.8916 12.5015C27.6966 5.91114 34.572 6.08128 40.5927 8.02651C46.6133 9.97174 88.0042 32.8482 91.0658 34.6158C94.1274 36.3835 102.419 41.1708 106.417 46.0303Z" fill="white" stroke="#D9D9D9" stroke-width="5" stroke-linejoin="round"/>
</svg>

<svg width="119" height="105" fill="none" xmlns="http://www.w3.org/2000/svg"><path d="M97.886 60.803c2.852 3.466 4.049 10.892 4.388 15.258a4.676 4.676 0 01-.637 2.697l-5.918 10.25c-2.985 5.17-8.663 6.625-11.129 6.706-8.379.547-21.639-6.45-37.62-15.154-14.301-7.79-35.874-19.124-39.42-26.092-.164-.322-.334-.635-.492-.96-1.585-3.282.579-9.941 2.487-14.65 1.122-2.77 3.484-7.37 4.919-9.99.268-.49.566-1.02.896-1.594 3.805-6.59 10.68-6.42 16.701-4.475 6.021 1.945 47.412 24.822 50.473 26.59 3.062 1.767 11.354 6.554 15.352 11.414z" fill="#fff" stroke="#D9D9D9" stroke-width="5" stroke-linejoin="round"/><path d="M106.417 46.03c2.852 3.467 4.05 10.892 4.388 15.259.074.943-.164 1.877-.637 2.696l-5.918 10.25c-2.985 5.17-8.663 6.626-11.128 6.707-8.38.547-21.64-6.451-37.621-15.155-14.3-7.788-35.874-19.124-39.42-26.091-.163-.322-.334-.635-.491-.96-1.585-3.283.578-9.942 2.486-14.65 1.123-2.77 3.484-7.37 4.919-9.991a81.2 81.2 0 01.897-1.594c3.805-6.59 10.68-6.42 16.7-4.474 6.021 1.945 47.412 24.821 50.474 26.589 3.061 1.767 11.353 6.555 15.351 11.414z" fill="#fff" stroke="#D9D9D9" stroke-width="5" stroke-linejoin="round"/></svg>
